!!!OTL: EIA WIWI WER SCHLAEFT HEUT NACHT BEI MIR
!!!ARE: Europa, Mitteleuropa, Deutschland
!!!SCT: K0040
!!!YEM: Copyright 1995, estate of Helmut Schaffrath.
**kern
*ICvox
*Ivox
*M2/4
*k[b-]
*F:
=1
{4cc
8a
8g
=2
4f
8r}
{8c
=3
8.cc
16b-
8a
8g
=4
4f
4r}
=5
{8f
8f
8g
8f
=6
8b-
8a
8g}
{8c
=7
8f
8f
8g
8f
=8
8b-
8a
4g}
=9
{4a
8g
8g
=10
4f
4r}
==
!!!AGN: Kinder -, Wiegen - Lied
!!!ONB: ESAC (Essen Associative Code) Database: KINDER
!!!AMT: simple duple
!!!AIN: vox
!!!EED: Helmut Schaffrath
!!!EEV: 1.0
*-
